FINK
CUT[IM SCHOENSTEN WIESENGRUND]
REG[Europa, Mitteleuropa, Deutschland]
KEY[F0998  16 Eb 3/4]
MEL[-1_-3_  -5__.-6_-5_-4_  -3__-3__
    -5__  -6__.-5_-4_-3_  -2___
    -5__  -5__.-5_-5_1_  1__-6__
    2__  1___-7__  1__0__
    -5_-3_  -3_.-2-2__
    -6_-4_  -4_.-3-3__
    -1_-3_  -5__.-5_-5_1_  1__-6__
    2__  1___-7__  1___ //] >>
FCT[Natur - Lied]
